X:1
T:Title
%%score { ( 1 3 ) | ( 2 4 ) }
L:1/8
Q:1/4=106
M:4/4
K:C
V:1 treble nm="Grand Piano"
V:3 treble 
V:2 bass 
V:4 bass 
V:1
 [EG]2 [CE]2 [EG]2 [Ec]2 | [Fc]3 [FB] B2 A2 | G3 A G2 F2 | E6 z2 | A3 B c2 A2 | G4 [GA]4 | %6
w: Ralph~E.~Stewart * * *||||||
 [GB]4 [^Fd]4 | d6 G2 | c8- | c6 z2 | z4 z2 [Ad]2 | [^Ge]6 [=Gf]2 | [Ge]4 [Gc]4 | c6 A2 | %14
w: ||||||||
 G2 c2 d3 c |[M:3/4] [Ec]6 |[M:1/4] G2 |[M:4/4] c6 z2 | A2 AA A2 [GA]2 | [^Fd]2 A2 B2 c2 | %20
w: ||||||
[M:3/4] d6[K:bass] |[M:1/4][K:treble] G2 |[M:4/4] [Ge]3 [Fd] [Ec]2 [EG]2 | %23
w: |||
[M:9/8] [FA]2 [FA]- [FA] [^Fd]2- [Fd] [Fc]2 |[M:4/4] B2 G2 A2 B2 | [Ec]6 z2 |] %26
w: |||
V:2
 [C,C]2 [C,G,]2 [C,C]2 [C,G,]2 | [D,G,]3 [D,G,][K:treble] [G,DF]2 [G,CF]2 | %2
 [G,B,F]3 [G,B,F] [G,CE]2[K:bass] [G,D]2 | [C,G,C]6 z2 | [F,C]3 [F,^G,D] [F,A,C]2 [F,CF]2 | %5
 [E,C]4 [_E,C]4 | [D,D]4 [D,C]4 | [G,B,G]6 G,2 | G,3- [D,G,-] [E,G,-]2 [D,G,-]2 | %9
 [C,G,-]2 [C,G,-]2 [C,G,]2 C,2 | F,2 F,2 F,2 .[F,C]2 | [E,B,]6 [D,B,]2 | [C,C]4 [E,_B,]4 | %13
 [F,A,F]6 [F,CF]2 | [G,CE]2 [G,CE]2 [G,B,F]3[K:bass] [G,E] |[M:3/4] [C,G,]6 |[M:1/4] z2 | %17
[M:4/4] z2 [C,G,]2 [C,G,]2 [C,C]2 | [F,CF]2 [F,CF][F,CF] [F,CF]2 [E,^C]2 | %19
 [D,C]2[K:treble] [CD^F]2 [B,DF]2 [A,DF]2 |[M:3/4] [G,B,G]6 |[M:1/4][K:bass] [D,G,B,]2 | %22
[M:4/4] [C,C]3 [C,C] [C,C]2 [C,C]2 |[M:9/8] [F,C]2 [F,C]- [F,C] [D,C]2- [D,C] [D,D]2 | %24
[M:4/4][K:treble] [G,DF]2 [G,B,F]2 [G,B,F]2 [G,F]2 | [C,G,]6 z2 |] %26
V:3
 x8 | x8 | x8 | x8 | x8 | x8 | x8 | x8 | E3 F G2 F2 | E2 E2 E2 [CEG]2 | [CFA]2 [CGB]2 [CAc]2 z A, | %11
 x8 | x8 | x8 | x8 |[M:3/4] x6 |[M:1/4] x2 |[M:4/4] z2 E2 E2 [EG]2 | x8 | x8 | %20
[M:3/4] z2[K:bass] F,2 E,2 |[M:1/4][K:treble] x2 |[M:4/4] x8 |[M:9/8] x9 |[M:4/4] x8 | x8 |] %26
V:4
 x8 | x4[K:treble] x4 | x6[K:bass] x2 | x8 | x8 | x8 | x8 | x8 | C,4 z4 | x8 | x8 | x8 | x8 | x8 | %14
 x7[K:bass] x |[M:3/4] x6 |[M:1/4] x2 |[M:4/4] x8 | x8 | x2[K:treble] x6 |[M:3/4] F,2 z2 z2 | %21
[M:1/4][K:bass] x2 |[M:4/4] x8 |[M:9/8] x9 |[M:4/4][K:treble] x8 | x8 |] %26

